X: 4301
M: C
L: 1/8
K: C
(gf) |\
egec dfdB | cdec G2c2 |\
[1,3 d^cde fed=c | B2g2 g2 :|\
[2,4 Aagf edcB | d2c2 c2 |:\
fefg agfe | dcBA G2G2 |\
cagf edcB | d2c2 c2 :|


